assets/Tram/Flat/tram_flat.svg

<svg width="32" height="32" viewBox="0 0 32 32" fill="none" xmlns="http://www.w3.org/2000/svg">
<path d="M8.86034 25.6385C8.2534 26.5013 7.73946 27.2319 7.67445 27.3448C7.65301 27.382 7.62958 27.4206 7.60538 27.4604C7.42308 27.7606 7.19682 28.1331 7.44334 28.5581C7.70963 29.0173 8.29114 29.0123 8.46146 29.0109C8.46976 29.0108 8.47708 29.0107 8.48334 29.0107H23.2936C23.6113 29.0107 23.9965 28.9915 24.2469 28.6641C24.4973 28.3367 24.5165 27.9419 24.1795 27.4026C24.0246 27.1547 23.2195 25.9533 22.4473 24.8011C21.8755 23.9478 21.3218 23.1216 21.0637 22.7296L10.8784 22.7296C10.5251 23.272 9.61991 24.5588 8.86034 25.6385ZM10.6919 25.7342C10.7529 25.6315 10.935 25.328 10.9966 25.2279C11.0737 25.1027 11.4291 24.7274 11.8817 24.7274H19.8981C20.2929 24.7274 20.5877 24.9583 20.7706 25.2279C20.8716 25.3767 20.9547 25.5353 21.0081 25.6372L21.0081 25.6372L21.0081 25.6372C21.0321 25.683 21.05 25.7173 21.061 25.7342H10.6919ZM9.38945 27.7249C9.44722 27.6479 9.58396 27.4592 9.6687 27.3205C9.77463 27.1472 10.2862 26.7243 10.7388 26.7243H21.2876C21.4994 26.7243 21.8123 26.8422 21.952 27.0517C22.029 27.1673 22.3261 27.6158 22.3967 27.7249H9.38945Z" fill="#321B41"/>
<path d="M18 4H14V6H12V4H10C9.45 4 9 3.55 9 3C9 2.45 9.45 2 10 2H22C22.55 2 23 2.45 23 3C23 3.56 22.56 4 22 4H20V6H18V4Z" fill="#BEBEBE"/>
<path d="M25 19.78V15.01H7V19.78C7 22.12 8.92 24.01 11.29 24.01H20.71C23.09 24 25 22.12 25 19.78Z" fill="#F92F60"/>
<path d="M10 21H12C12.56 21 13 20.56 13 20C13 19.45 12.55 19 12 19H10C9.45 19 9 19.45 9 20C9 20.55 9.45 21 10 21ZM20 21H22C22.56 21 23 20.56 23 20C23 19.45 22.55 19 22 19H20C19.45 19 19 19.45 19 20C19 20.55 19.45 21 20 21Z" fill="#FFB02E"/>
<path d="M22.95 5C24.03 5 24.91 5.82063 24.98 6.87143C24.98 6.88381 24.9838 6.89619 24.9891 6.9133C24.9924 6.92386 24.9962 6.93622 25 6.9515V7V14.9877C25 16.649 23.65 18 21.99 18H10.01C8.35 18 7 16.649 7 14.9877C7 13.6383 7.0025 12.2889 7.005 10.9396C7.0075 9.59019 7.00999 8.24082 7.00999 6.89145C7.06999 5.83064 7.95 5 9.03 5H22.95ZM14.5 20H17.5C17.78 20 18 19.78 18 19.5C18 19.22 17.78 19 17.5 19H14.5C14.22 19 14 19.22 14 19.5C14 19.78 14.22 20 14.5 20Z" fill="#D3D3D3"/>
<path d="M14.5 20H17.5C17.78 20 18 19.78 18 19.5C18 19.22 17.78 19 17.5 19H14.5C14.22 19 14 19.22 14 19.5C14 19.78 14.22 20 14.5 20Z" fill="#E6E6E6"/>
<path d="M23 8.18999V14.81C23 15.47 22.47 16 21.81 16H10.19C9.53 16 9 15.47 9 14.81V8.18999C9 7.52999 9.53 7 10.19 7H21.81C22.47 7 23 7.52999 23 8.18999Z" fill="#00A6ED"/>
<path d="M23 7.82999V10H9V7.82999C9 7.36999 9.37 7 9.83 7H22.18C22.63 7 23 7.36999 23 7.82999Z" fill="#636363"/>
</svg>

<svg xmlns="http://www.w3.org/2000/svg" width="32" height="32" fill="none"><path fill="#321B41" d="M8.86 25.639c-.607.862-1.12 1.593-1.186 1.706a5.834 5.834 0 0 1-.069.115c-.182.3-.408.673-.162 1.098.267.46.848.454 1.018.453h14.832c.318 0 .704-.02.954-.347.25-.327.27-.722-.067-1.261-.155-.248-.96-1.45-1.733-2.602-.572-.853-1.125-1.68-1.383-2.071H10.878c-.353.542-1.258 1.829-2.018 2.909Zm1.832.095c.06-.103.243-.406.305-.506.077-.125.432-.5.885-.5h8.016c.395 0 .69.23.873.5.1.149.184.307.237.41.024.045.042.08.053.096h-10.37Zm-1.303 1.99c.058-.076.195-.265.28-.404.106-.173.617-.596 1.07-.596h10.549c.211 0 .524.118.664.328l.445.673H9.389Z"/><path fill="#BEBEBE" d="M18 4h-4v2h-2V4h-2c-.55 0-1-.45-1-1s.45-1 1-1h12c.55 0 1 .45 1 1 0 .56-.44 1-1 1h-2v2h-2V4Z"/><path fill="#F92F60" d="M25 19.78v-4.77H7v4.77c0 2.34 1.92 4.23 4.29 4.23h9.42C23.09 24 25 22.12 25 19.78Z"/><path fill="#FFB02E" d="M10 21h2c.56 0 1-.44 1-1 0-.55-.45-1-1-1h-2c-.55 0-1 .45-1 1s.45 1 1 1Zm10 0h2c.56 0 1-.44 1-1 0-.55-.45-1-1-1h-2c-.55 0-1 .45-1 1s.45 1 1 1Z"/><path fill="#D3D3D3" d="M22.95 5c1.08 0 1.96.82 2.03 1.871 0 .013.004.025.01.042l.01.038v8.037A3.014 3.014 0 0 1 21.99 18H10.01A3.014 3.014 0 0 1 7 14.988c0-1.35.003-2.7.005-4.048.003-1.35.005-2.7.005-4.049A2.01 2.01 0 0 1 9.03 5h13.92ZM14.5 20h3c.28 0 .5-.22.5-.5s-.22-.5-.5-.5h-3c-.28 0-.5.22-.5.5s.22.5.5.5Z"/><path fill="#E6E6E6" d="M14.5 20h3c.28 0 .5-.22.5-.5s-.22-.5-.5-.5h-3c-.28 0-.5.22-.5.5s.22.5.5.5Z"/><path fill="#00A6ED" d="M23 8.19v6.62c0 .66-.53 1.19-1.19 1.19H10.19C9.53 16 9 15.47 9 14.81V8.19C9 7.53 9.53 7 10.19 7h11.62c.66 0 1.19.53 1.19 1.19Z"/><path fill="#636363" d="M23 7.83V10H9V7.83c0-.46.37-.83.83-.83h12.35c.45 0 .82.37.82.83Z"/></svg>
